src/assets/outline/Refresh2.svg

<?xml version="1.0" encoding="UTF-8"?>
<svg width="24" height="24" viewBox="0 0 24 24" xmlns="http://www.w3.org/2000/svg">
 <path d="m22.75 12c0-0.4142-0.3358-0.75-0.75-0.75s-0.75 0.3358-0.75 0.75h1.5zm-19.64 4.44v-0.75c-0.41421 0-0.75 0.3358-0.75 0.75h0.75zm-1.86-4.44c0 0.4142 0.33579 0.75 0.75 0.75s0.75-0.3358 0.75-0.75h-1.5zm20.75-4.44v0.75c0.4142 0 0.75-0.33579 0.75-0.75h-0.75zm0.75-5c0-0.41421-0.3358-0.75-0.75-0.75s-0.75 0.33579-0.75 0.75h1.5zm-5.19 4.25c-0.4142 0-0.75 0.33579-0.75 0.75s0.3358 0.75 0.75 0.75v-1.5zm-9.93 10.38c0.41421 0 0.75-0.3358 0.75-0.75s-0.33579-0.75-0.75-0.75v1.5zm-5.27 4.25c0 0.4142 0.33579 0.75 0.75 0.75s0.75-0.3358 0.75-0.75h-1.5zm18.89-9.44c0 5.1058-4.1442 9.25-9.25 9.25v1.5c5.9342 0 10.75-4.8158 10.75-10.75h-1.5zm-9.25 9.25c-2.4995 0-4.5495-1.2598-6.0111-2.5855-0.72602-0.6585-1.2902-1.3187-1.6723-1.8139-0.19061-0.2471-0.33475-0.4515-0.42996-0.5922-0.04758-0.0702-0.08285-0.1244-0.10552-0.1599-0.01132-0.0177-0.01949-0.0307-0.02447-0.0387-0.00248-4e-3 -0.00417-0.0068-0.00505-0.0082-4.4e-4 -7e-4 -6.8e-4 -0.0011-7.1e-4 -0.0012-2e-5 0 1e-5 1e-4 9e-5 2e-4 4e-5 1e-4 1.4e-4 2e-4 1.7e-4 3e-4 1.1e-4 1e-4 2.3e-4 3e-4 -0.64115 0.3891s-0.64123 0.389-0.64107 0.3893c7e-5 1e-4 2.5e-4 4e-4 3.9e-4 6e-4 2.9e-4 5e-4 6.3e-4 0.0011 0.00103 0.0017 7.8e-4 0.0013 0.00177 0.0029 0.00297 0.0049 0.0024 0.0039 0.00564 0.0091 0.0097 0.0156 0.00811 0.0131 0.01954 0.0313 0.03424 0.0543 0.0294 0.046 0.07192 0.1112 0.12727 0.193 0.11065 0.1634 0.27292 0.3933 0.48449 0.6675 0.42231 0.5473 1.0456 1.2771 1.8521 2.0086 1.6034 1.4543 3.9984 2.9745 7.0189 2.9745v-1.5zm-9.25-9.25c0-5.1077 4.1062-9.25 9.25-9.25v-1.5c-5.9762 0-10.75 4.8177-10.75 10.75h1.5zm9.25-9.25c3.1123 0 5.4482 1.294 7.0208 2.6059 0.7868 0.65634 1.3769 1.313 1.7687 1.8034 0.1956 0.24483 0.3408 0.44704 0.4355 0.58541 0.0474 0.06915 0.082 0.12224 0.104 0.15659 0.0109 0.01717 0.0187 0.02965 0.0233 0.0371 0.0023 0.00372 0.0038 0.00619 0.0045 0.00735 4e-4 5.8e-4 5e-4 8.4e-4 5e-4 7.7e-4 0-4e-5 -1e-4 -1.6e-4 -2e-4 -3.6e-4 -1e-4 -1e-4 -2e-4 -3.2e-4 -2e-4 -3.7e-4 -2e-4 -2.3e-4 -3e-4 -4.9e-4 0.6431-0.38585s0.6432-0.38566 0.6431-0.38598c-1e-4 -1.4e-4 -3e-4 -4.8e-4 -5e-4 -7.5e-4 -3e-4 -5.4e-4 -7e-4 -0.00116-0.0011-0.00187-9e-4 -0.00142-0.0019-0.00318-0.0032-0.00527-0.0026-0.00418-0.0059-0.00969-0.0101-0.01649-0.0084-0.01359-0.0202-0.03233-0.0352-0.05588-0.0301-0.0471-0.0735-0.11346-0.1302-0.19635-0.1135-0.16569-0.2805-0.39785-0.5014-0.67427-0.441-0.55204-1.1002-1.2854-1.9797-2.0191-1.7599-1.4681-4.424-2.9541-7.9817-2.9541v1.5zm10.75 4.81v-5h-1.5v5h1.5zm-0.75-0.75h-4.44v1.5h4.44v-1.5zm-18.89 10.38h4.52v-1.5h-4.52v1.5zm-0.75-0.75v5h1.5v-5h-1.5z"/>
</svg>

<svg width="24" height="24" viewBox="0 0 24 24"  xmlns="http://www.w3.org/2000/svg">
<path d="M22.75 12C22.75 11.5858 22.4142 11.25 22 11.25C21.5858 11.25 21.25 11.5858 21.25 12H22.75ZM3.11 16.44V15.69C2.69579 15.69 2.36 16.0258 2.36 16.44H3.11ZM1.25 12C1.25 12.4142 1.58579 12.75 2 12.75C2.41421 12.75 2.75 12.4142 2.75 12H1.25ZM22 7.56V8.31C22.4142 8.31 22.75 7.97421 22.75 7.56H22ZM22.75 2.56C22.75 2.14579 22.4142 1.81 22 1.81C21.5858 1.81 21.25 2.14579 21.25 2.56H22.75ZM17.56 6.81C17.1458 6.81 16.81 7.14579 16.81 7.56C16.81 7.97421 17.1458 8.31 17.56 8.31V6.81ZM7.63 17.19C8.04421 17.19 8.38 16.8542 8.38 16.44C8.38 16.0258 8.04421 15.69 7.63 15.69V17.19ZM2.36 21.44C2.36 21.8542 2.69579 22.19 3.11 22.19C3.52421 22.19 3.86 21.8542 3.86 21.44H2.36ZM21.25 12C21.25 17.1058 17.1058 21.25 12 21.25V22.75C17.9342 22.75 22.75 17.9342 22.75 12H21.25ZM12 21.25C9.50046 21.25 7.45051 19.9902 5.98887 18.6645C5.26285 18.006 4.69867 17.3458 4.3166 16.8506C4.12599 16.6035 3.98185 16.3991 3.88664 16.2584C3.83906 16.1882 3.80379 16.134 3.78112 16.0985C3.7698 16.0808 3.76163 16.0678 3.75665 16.0598C3.75417 16.0558 3.75248 16.053 3.7516 16.0516C3.75116 16.0509 3.75092 16.0505 3.75089 16.0504C3.75087 16.0504 3.7509 16.0505 3.75098 16.0506C3.75102 16.0507 3.75112 16.0508 3.75115 16.0509C3.75126 16.051 3.75138 16.0512 3.11 16.44C2.46862 16.8288 2.46877 16.829 2.46893 16.8293C2.469 16.8294 2.46918 16.8297 2.46932 16.8299C2.46961 16.8304 2.46995 16.831 2.47035 16.8316C2.47113 16.8329 2.47212 16.8345 2.47332 16.8365C2.47572 16.8404 2.47896 16.8456 2.48302 16.8521C2.49113 16.8652 2.50256 16.8834 2.51726 16.9064C2.54666 16.9524 2.58918 17.0176 2.64453 17.0994C2.75518 17.2628 2.91745 17.4927 3.12902 17.7669C3.55133 18.3142 4.17465 19.044 4.98113 19.7755C6.58449 21.2298 8.97954 22.75 12 22.75V21.25ZM2.75 12C2.75 6.89226 6.85617 2.75 12 2.75V1.25C6.02383 1.25 1.25 6.06774 1.25 12H2.75ZM12 2.75C15.1123 2.75 17.4482 4.044 19.0208 5.35592C19.8076 6.01226 20.3977 6.6689 20.7895 7.15936C20.9851 7.40419 21.1303 7.6064 21.225 7.74477C21.2724 7.81392 21.307 7.86701 21.329 7.90136C21.3399 7.91853 21.3477 7.93101 21.3523 7.93846C21.3546 7.94218 21.3561 7.94465 21.3568 7.94581C21.3572 7.94639 21.3573 7.94665 21.3573 7.94658C21.3573 7.94654 21.3572 7.94642 21.3571 7.94622C21.357 7.94612 21.3569 7.9459 21.3569 7.94585C21.3567 7.94562 21.3566 7.94536 22 7.56C22.6434 7.17464 22.6432 7.17434 22.6431 7.17402C22.643 7.17388 22.6428 7.17354 22.6426 7.17327C22.6423 7.17273 22.6419 7.17211 22.6415 7.1714C22.6406 7.16998 22.6396 7.16822 22.6383 7.16613C22.6357 7.16195 22.6324 7.15644 22.6282 7.14964C22.6198 7.13605 22.608 7.11731 22.593 7.09376C22.5629 7.04666 22.5195 6.9803 22.4628 6.89741C22.3493 6.73172 22.1823 6.49956 21.9614 6.22314C21.5204 5.6711 20.8612 4.93774 19.9817 4.20408C18.2218 2.736 15.5577 1.25 12 1.25V2.75ZM22.75 7.56V2.56H21.25V7.56H22.75ZM22 6.81H17.56V8.31H22V6.81ZM3.11 17.19H7.63V15.69H3.11V17.19ZM2.36 16.44V21.44H3.86V16.44H2.36Z" />
</svg>
